X: 223
T:David Adams
C:James Scott Skinner
Z:https://nigelgatherer.com/
L:1/8
M:4/4
K:A
E | A/A/A cA GABc | dcBA GEFG | A/A/A cA Bcdf | ecdB cAAa |
A/A/A cA GABc | dcBA GFEG | AcEc ABcd | ecdB cAAa ||
aAag fddf | bBba geeg | aAag fdaf | ecdB cAAg | 
a/a/a Aa fddf b/b/b Bb geeg | agae faea | ecdB cAA |]

